X:83
T:Castle Downe. Ru2.083
%%VWML:RutherfordVol2-2249-p42-0
F:http://www.vwml.org/record/RutherfordVol2/2249/p42
B:RUTHERFORD Complete Collection of 200 Country Dances Vol.2; 1759.
Z:vmp.Mike Hicken 2015 www.village-music-project.org.uk
M:6/8
Q:3/8=120
K:G
G2A B2G|c2A B2G|BdB AGF|E3E3|
G2A B2G|c2A B2G|BdB AFA|D3D3 :|
|: B2c d2B|e2c d2B|efg dcB|A3 ABc|
dcB edc|fed gfe|dcB AGF G3G3 :|
W:
W: Set to your Partner & turn her.|  then foot
W: sides & turn :| hands round back to back
W: 4 .|.  Gallop down one Cu: up again & cast
W: off :|.
T:Kiss me sweetly. Ru2.084
L:1/8
B:RUTHERFORD Complete Collection of 200 Country Dances Vol.2; London: David & John Rutherford 1759.
Z:vmp.Mike Hicken 2015 www.village-music-project.org.uk
N: * The first and second time bars are not in the original but have been added to give the correct repeats.
M:C
Q:1/4=100
K:C
EGcG AGcG|EGcA dDDF|EGcG EGga|1 gede c/c/c c2:|2 gede c/c/c c||
|: g|a/g/f/e/ cg egcg|a/g/f/e/ cg eddg|a/g/f/e/ cg egde|1 cAGE C/C/C C :|2 cAGE C/C/C C2 |]
W:
W: Cast off one Cu: & hands across with the 3d Cu:  .|  the
W: 2d Cu: does the same :|  Gallop down the middle up
W: again & cast off .|.  lead thro' the 3d. Cu: & cast up lead
W: up to the top & cast off :|.  the man hands round 3 with
W: the 3d Cu: his Partner with the 2d at the same time .||
W: lead to the top cast off & turn your Parter :||  hands
W: round 6 .||. right & left at top :||.
